assets/Lizard/Flat/lizard_flat.svg

<svg width="32" height="32" viewBox="0 0 32 32" fill="none" xmlns="http://www.w3.org/2000/svg">
<path d="M24.0506 11.0149C24.3406 10.9749 24.6106 11.1549 24.6806 11.4349C24.6806 11.4349 26.635 22.8775 26.625 24.1875C26.625 27.5275 24.6563 29.9531 21.2813 29.9531C17.0625 29.9531 15.2812 26.4872 15.2812 23.0312C15.2812 22.6324 15.2175 22.264 15.1024 21.9199L13.8496 21.9199C13.7881 21.9199 13.7266 21.9712 13.7266 22.043V23.0534C13.7266 23.8711 13.0591 24.5319 12.4297 24.6055C12.3908 24.61 12.3531 24.6139 12.3166 24.6177C12.0707 24.643 11.8759 24.6632 11.6953 24.8438C11.6953 24.8438 11.2222 25.3424 11.0682 25.4329C10.9141 25.5234 10.4915 25.6036 10.2864 25.3984C10.0813 25.1933 10.0608 24.8379 10.2659 24.6328L10.5039 24.3984C10.5347 24.3574 10.5317 24.2852 10.4805 24.2852L9.96484 24.3242C9.73827 24.3242 9.53125 24.1523 9.51171 23.9141C9.49217 23.6758 9.58984 23.4453 9.96484 23.3789L10.3042 23.3018C10.3555 23.3018 10.3862 23.2402 10.3555 23.1992L10.1406 22.9508C9.96484 22.7852 9.95503 22.4278 10.1602 22.2226C10.3653 22.0175 10.7636 22.0488 10.9688 22.2539L11.5742 22.8047C11.6641 22.8985 11.7226 22.9508 11.8398 22.9508C11.9014 22.9508 11.9805 22.8996 11.9805 22.8278V21.6483C11.9805 20.8176 12.6927 20.1719 13.5234 20.1719H13.9633C13.697 19.9003 13.4031 19.6418 13.0937 19.3906C11.758 18.3061 10.6138 16.9976 9.95396 15.4375H7.68689C6.67188 15.4375 6.16015 14.6562 6.16015 14.0391V13.3242C6.16015 13.2542 6.13765 13.1984 6.09765 13.1484L5.47265 12.4844C5.27265 12.2844 5.24702 11.8931 5.45702 11.7031C5.65702 11.5131 5.99689 11.5031 6.18689 11.7031L6.30405 11.7612C6.34405 11.8012 6.41405 11.7712 6.41405 11.7212V11.5012C6.41405 11.2312 6.63671 10.9844 6.90624 10.9844C7.21483 10.9843 7.46812 11.2112 7.46812 11.5012V11.7612C7.46812 11.8212 7.53812 11.8412 7.57812 11.8012L7.71874 11.6835C7.90874 11.4935 8.22577 11.5035 8.42577 11.6835C8.63577 11.8735 8.62577 12.257 8.42577 12.457L7.84765 13.0912C7.79765 13.1412 7.78124 13.2012 7.78124 13.2712L7.78091 13.3224C7.78025 13.4068 7.77902 13.565 7.78124 13.664C7.78356 13.7675 7.8418 13.7812 7.8828 13.7812H9.46434C9.39058 13.3581 9.35156 12.9195 9.35156 12.4649V11.6449C9.35156 11.5955 9.35463 11.5444 9.35771 11.4931C9.36958 11.2952 9.38164 11.0943 9.21875 10.9763C8.23875 10.2663 7.49875 8.99288 7.46875 7.70288C7.43209 6.03503 8.57472 4.59777 9.61314 3.29159C9.84008 3.00613 10.062 2.72694 10.2656 2.45296C10.849 1.66791 12.058 1.65579 12.7656 2.45296C12.9221 2.62924 13.0822 2.80409 13.2428 2.97949C14.4204 4.26553 15.625 5.58115 15.625 7.70296C15.625 9.05296 14.9106 10.3049 13.8806 11.0249C13.6706 11.1649 13.6406 11.3949 13.6406 11.6449V12.4149C13.6716 12.9946 13.7296 13.4135 13.8635 13.7772H15.5612C15.633 13.7772 15.6323 13.7289 15.6314 13.6613L15.6312 13.6372L15.6312 13.2215C15.6312 13.1515 15.5891 13.0915 15.5391 13.0415L14.9375 12.453C14.7375 12.253 14.7275 11.9015 14.9375 11.7115C15.1375 11.5215 15.478 11.4815 15.668 11.6815L15.8197 11.7515C15.8597 11.7915 15.9297 11.7715 15.9297 11.7115V11.414C15.9297 11.2344 16.1016 10.9531 16.4062 10.9531C16.7344 10.9531 16.9512 11.1758 16.9512 11.414L16.9883 11.7115C16.9883 11.7615 17.0583 11.7915 17.0983 11.7515L17.2227 11.6815C17.4127 11.4815 17.7341 11.5186 17.9141 11.6815C18.0941 11.8444 18.1844 12.2015 17.9844 12.4015L17.4023 13.0703L17.3916 13.0836C17.3511 13.1336 17.293 13.2055 17.293 13.2695V13.9961C17.293 14.8261 16.6328 15.4715 15.7012 15.4715H15.2259C15.3053 15.5444 15.3849 15.6172 15.4646 15.6901C16.2595 16.4171 17.0634 17.1523 17.7484 18.0156L17.7493 17.9499C17.7493 17.1399 18.74 17.0156 19.55 17.0156H20.3047C20.3747 17.0156 20.4219 16.9467 20.4219 16.8867V16.6599C20.4219 16.6599 20.4284 16.3894 20.3984 16.3594L19.793 15.6328C19.5996 15.4395 19.6125 15.1383 19.8125 14.9383C20.0125 14.7383 20.2461 14.7734 20.3984 14.8398L20.68 14.9883C20.72 15.0183 20.78 14.9883 20.78 14.9383V14.6699C20.78 14.3899 21.03 14.1699 21.31 14.1699C21.59 14.1699 21.8359 14.3899 21.8359 14.6699V14.9141C21.8359 14.9641 21.8959 14.9941 21.9359 14.9641L22.1641 14.8398C22.2852 14.7656 22.5695 14.7141 22.7695 14.9141C22.9695 15.1141 22.9648 15.3984 22.7969 15.6328L22.5391 15.9492L22.3438 16.207C22.3237 16.227 22.3037 16.267 22.3037 16.297V17.1699C22.3037 18.3477 21.39 18.8828 20.58 18.8828H19.67C19.6 18.8828 19.55 18.9897 19.55 19.0497L19.5584 22.5108C19.5861 22.8153 19.6006 23.1329 19.6006 23.4649C19.6006 24.7326 20.22 26.0406 21.7344 26C22.8144 25.97 23.4375 25.2031 23.4375 23.4649L23.5806 11.5849C23.5806 11.3049 23.7706 11.0549 24.0506 11.0149Z" fill="#00D26A"/>
<path d="M10 6.5C10 6.77614 9.77614 7 9.5 7C9.22386 7 9 6.77614 9 6.5C9 6.22386 9.22386 6 9.5 6C9.77614 6 10 6.22386 10 6.5Z" fill="#1C1C1C"/>
<path d="M14 6.5C14 6.77614 13.7761 7 13.5 7C13.2239 7 13 6.77614 13 6.5C13 6.22386 13.2239 6 13.5 6C13.7761 6 14 6.22386 14 6.5Z" fill="#1C1C1C"/>
</svg>

<svg xmlns="http://www.w3.org/2000/svg" width="32" height="32" fill="none"><path fill="#00D26A" d="M24.05 11.015c.29-.04.56.14.63.42 0 0 1.955 11.443 1.945 12.752 0 3.34-1.969 5.766-5.344 5.766-4.218 0-6-3.466-6-6.922 0-.399-.064-.767-.179-1.111H13.85a.125.125 0 0 0-.123.123v1.01c0 .818-.668 1.479-1.297 1.552l-.113.013c-.246.025-.441.045-.622.226 0 0-.473.498-.627.589-.154.09-.576.17-.782-.035-.205-.205-.225-.56-.02-.765l.238-.235c.03-.04.028-.113-.024-.113l-.515.04a.454.454 0 0 1-.453-.41c-.02-.24.078-.47.453-.536l.34-.077c.05 0 .081-.062.05-.103l-.214-.248c-.176-.166-.186-.523.02-.728.204-.206.603-.174.808.03l.605.552c.09.093.149.146.266.146.061 0 .14-.051.14-.123v-1.18c0-.83.713-1.476 1.543-1.476h.44c-.266-.272-.56-.53-.87-.781-1.335-1.085-2.48-2.393-3.139-3.953H7.687c-1.015 0-1.527-.782-1.527-1.399v-.715a.27.27 0 0 0-.062-.176l-.625-.664c-.2-.2-.226-.59-.016-.78.2-.19.54-.2.73 0l.117.057c.04.04.11.01.11-.04v-.22c0-.27.223-.517.492-.517.309 0 .562.227.562.517v.26c0 .06.07.08.11.04l.14-.117c.19-.19.508-.18.708 0 .21.19.2.573 0 .773l-.578.634a.238.238 0 0 0-.067.18v.051c0 .085-.002.243 0 .342.003.104.06.117.102.117h1.581a7.65 7.65 0 0 1-.112-1.316v-.82c0-.05.003-.1.006-.152.012-.198.024-.399-.14-.517-.98-.71-1.72-1.983-1.75-3.273-.036-1.668 1.107-3.105 2.145-4.411.227-.286.449-.565.653-.839.583-.785 1.792-.797 2.5 0 .156.176.316.351.477.526 1.177 1.287 2.382 2.602 2.382 4.724 0 1.35-.714 2.602-1.744 3.322-.21.14-.24.37-.24.62v.77c.03.58.089.999.223 1.362h1.697c.072 0 .071-.048.07-.116v-.439c0-.07-.042-.13-.092-.18l-.601-.589c-.2-.2-.21-.551 0-.742.2-.19.54-.23.73-.03l.152.07c.04.04.11.02.11-.04v-.297c0-.18.172-.46.476-.46.328 0 .545.222.545.46l.037.297c0 .05.07.08.11.04l.125-.07c.19-.2.511-.162.691 0 .18.163.27.52.07.72l-.582.67-.01.013c-.04.05-.099.122-.099.186v.726c0 .83-.66 1.476-1.592 1.476h-.475l.239.218c.794.727 1.598 1.462 2.283 2.326l.001-.066c0-.81.991-.934 1.801-.934h.755c.07 0 .117-.07.117-.13v-.226s.006-.27-.024-.3l-.605-.727c-.193-.193-.18-.495.02-.695.2-.2.433-.165.585-.098l.282.148c.04.03.1 0 .1-.05v-.268c0-.28.25-.5.53-.5s.526.22.526.5v.244c0 .05.06.08.1.05l.228-.124c.121-.074.405-.126.605.074.2.2.196.484.028.719l-.258.316-.195.258c-.02.02-.04.06-.04.09v.873c0 1.178-.914 1.713-1.724 1.713h-.91c-.07 0-.12.107-.12.167l.008 3.46c.028.305.043.623.043.955 0 1.268.619 2.576 2.133 2.535 1.08-.03 1.703-.797 1.703-2.535l.144-11.88c0-.28.19-.53.47-.57Z"/><path fill="#1C1C1C" d="M10 6.5a.5.5 0 1 1-1 0 .5.5 0 0 1 1 0ZM14 6.5a.5.5 0 1 1-1 0 .5.5 0 0 1 1 0Z"/></svg>
